public/home/logo5.svg

<svg width="216" height="65" viewBox="0 0 216 65" fill="none" xmlns="http://www.w3.org/2000/svg">
<g clip-path="url(#clip0_561_197)">
<path d="M27.877 44.089V19.3228H32.5312L44.4944 36.7653V19.3228H49.1487V44.089H44.4944L32.5312 26.6818V44.089H27.877Z" fill="white"/>
<path d="M60.9194 44.5136C59.1011 44.5136 57.4892 44.1363 56.0833 43.3813C54.6773 42.6266 53.5743 41.5651 52.7742 40.1972C51.9741 38.8292 51.5742 37.2487 51.5742 35.4562C51.5742 33.6399 51.962 32.0243 52.738 30.609C53.5377 29.1938 54.6287 28.097 56.0105 27.3187C57.4164 26.5167 59.0649 26.1157 60.9556 26.1157C62.7256 26.1157 64.2888 26.4931 65.6465 27.2479C67.0041 28.0027 68.0585 29.0405 68.81 30.3614C69.5859 31.6586 69.9737 33.1092 69.9737 34.7131C69.9737 34.9726 69.9616 35.2439 69.9371 35.5269C69.9371 35.8099 69.9251 36.1046 69.9009 36.4115H56.1923C56.2892 37.7794 56.774 38.8527 57.6469 39.6312C58.5436 40.4093 59.6225 40.7987 60.8832 40.7987C61.8285 40.7987 62.6162 40.598 63.2465 40.1972C63.901 39.7725 64.3858 39.23 64.7011 38.5697H69.4282C69.0887 39.6782 68.5191 40.6923 67.719 41.6125C66.9434 42.5088 65.9739 43.2161 64.8102 43.7351C63.6709 44.2541 62.374 44.5136 60.9194 44.5136ZM60.9556 29.7953C59.8164 29.7953 58.8103 30.1137 57.9377 30.7506C57.0648 31.3638 56.5073 32.3073 56.2651 33.581H65.2466C65.1738 32.4252 64.7374 31.5053 63.9376 30.8213C63.1375 30.1373 62.1435 29.7953 60.9556 29.7953Z" fill="white"/>
<path d="M69.1182 44.0877L75.6631 35.3134L69.1182 26.5391H74.0999L78.6814 32.766L83.2266 26.5391H88.2446L81.663 35.3134L88.2446 44.0877H83.2266L78.6814 37.8608L74.0999 44.0877H69.1182Z" fill="white"/>
<path d="M97.4282 44.0877C95.5371 44.0877 94.0222 43.6396 92.8825 42.7432C91.7433 41.8469 91.1737 40.255 91.1737 37.9669V30.3248H88.083V26.5391H91.1737L91.7192 21.8335H95.828V26.5391H100.701V30.3248H95.828V38.0025C95.828 38.8515 96.0098 39.4413 96.3734 39.7713C96.7612 40.0781 97.4157 40.2312 98.3369 40.2312H100.592V44.0877H97.4282Z" fill="white"/>
<path d="M102.878 44.0889V26.5403H106.987L107.387 28.9108C107.969 28.0616 108.733 27.3894 109.678 26.8941C110.647 26.3752 111.763 26.1157 113.023 26.1157C115.811 26.1157 117.787 27.1654 118.95 29.2646C119.605 28.2975 120.477 27.5309 121.568 26.9649C122.683 26.3988 123.895 26.1157 125.204 26.1157C127.556 26.1157 129.362 26.7998 130.623 28.1678C131.883 29.5358 132.513 31.5407 132.513 34.1824V44.0889H127.859V34.607C127.859 33.0975 127.556 31.9417 126.95 31.1398C126.368 30.3378 125.459 29.9368 124.223 29.9368C122.962 29.9368 121.944 30.385 121.168 31.2812C120.417 32.1776 120.041 33.4277 120.041 35.0316V44.0889H115.387V34.607C115.387 33.0975 115.084 31.9417 114.478 31.1398C113.872 30.3378 112.938 29.9368 111.678 29.9368C110.441 29.9368 109.435 30.385 108.66 31.2812C107.908 32.1776 107.533 33.4277 107.533 35.0316V44.0889H102.878Z" fill="white"/>
<path d="M143.769 44.5136C142.024 44.5136 140.448 44.1242 139.042 43.346C137.66 42.5675 136.557 41.4943 135.733 40.1263C134.933 38.7348 134.533 37.1309 134.533 35.3146C134.533 33.4984 134.945 31.9063 135.769 30.5383C136.594 29.1467 137.697 28.0616 139.078 27.2833C140.484 26.5049 142.06 26.1157 143.806 26.1157C145.527 26.1157 147.078 26.5049 148.46 27.2833C149.866 28.0616 150.969 29.1467 151.769 30.5383C152.593 31.9063 153.005 33.4984 153.005 35.3146C153.005 37.1309 152.593 38.7348 151.769 40.1263C150.969 41.4943 149.866 42.5675 148.46 43.346C147.054 44.1242 145.49 44.5136 143.769 44.5136ZM143.769 40.5862C144.981 40.5862 146.036 40.1498 146.933 39.2773C147.83 38.381 148.278 37.06 148.278 35.3146C148.278 33.5692 147.83 32.2601 146.933 31.3874C146.036 30.4911 144.993 30.0429 143.806 30.0429C142.569 30.0429 141.503 30.4911 140.606 31.3874C139.733 32.2601 139.297 33.5692 139.297 35.3146C139.297 37.06 139.733 38.381 140.606 39.2773C141.503 40.1498 142.557 40.5862 143.769 40.5862Z" fill="white"/>
<path d="M159.333 44.0877L152.715 26.5391H157.588L162.169 39.8069L166.751 26.5391H171.623L164.969 44.0877H159.333Z" fill="white"/>
<path d="M180.618 44.5136C178.8 44.5136 177.187 44.1363 175.782 43.3813C174.376 42.6266 173.273 41.5651 172.472 40.1972C171.673 38.8292 171.272 37.2487 171.272 35.4562C171.272 33.6399 171.661 32.0243 172.436 30.609C173.236 29.1938 174.327 28.097 175.709 27.3187C177.115 26.5167 178.763 26.1157 180.654 26.1157C182.424 26.1157 183.987 26.4931 185.345 27.2479C186.702 28.0027 187.757 29.0405 188.508 30.3614C189.284 31.6586 189.672 33.1092 189.672 34.7131C189.672 34.9726 189.66 35.2439 189.636 35.5269C189.636 35.8099 189.623 36.1046 189.599 36.4115H175.891C175.987 37.7794 176.473 38.8527 177.345 39.6312C178.242 40.4093 179.321 40.7987 180.581 40.7987C181.527 40.7987 182.315 40.598 182.945 40.1972C183.599 39.7725 184.084 39.23 184.399 38.5697H189.126C188.787 39.6782 188.217 40.6923 187.418 41.6125C186.642 42.5088 185.672 43.2161 184.508 43.7351C183.369 44.2541 182.072 44.5136 180.618 44.5136ZM180.654 29.7953C179.515 29.7953 178.509 30.1137 177.636 30.7506C176.763 31.3638 176.206 32.3073 175.963 33.581H184.945C184.872 32.4252 184.436 31.5053 183.636 30.8213C182.836 30.1373 181.842 29.7953 180.654 29.7953Z" fill="white"/>
</g>
<defs>
<clipPath id="clip0_561_197">
<rect width="163" height="26" fill="white" transform="translate(27 19)"/>
</clipPath>
</defs>
</svg>

<svg width="216" height="65" fill="none" xmlns="http://www.w3.org/2000/svg"><g clip-path="url(#a)" fill="#fff"><path d="M27.877 44.089V19.323h4.654l11.963 17.442V19.323h4.655v24.766h-4.655L32.531 26.682v17.407h-4.654ZM60.92 44.514c-1.819 0-3.43-.378-4.837-1.133a8.317 8.317 0 0 1-3.309-3.184c-.8-1.368-1.2-2.948-1.2-4.74 0-1.817.388-3.433 1.164-4.848.8-1.415 1.89-2.512 3.273-3.29 1.405-.802 3.054-1.203 4.945-1.203 1.77 0 3.333.377 4.69 1.132a8.08 8.08 0 0 1 3.164 3.113c.776 1.298 1.164 2.748 1.164 4.352 0 .26-.012.53-.037.814 0 .283-.012.578-.036.884H56.192c.097 1.368.582 2.442 1.455 3.22.897.778 1.976 1.168 3.236 1.168.945 0 1.733-.201 2.363-.602.655-.425 1.14-.967 1.455-1.627h4.727a8.313 8.313 0 0 1-1.709 3.042c-.776.897-1.745 1.604-2.909 2.123-1.14.52-2.436.779-3.89.779Zm.036-14.719c-1.14 0-2.146.319-3.018.956-.873.613-1.43 1.556-1.673 2.83h8.982c-.073-1.156-.51-2.076-1.31-2.76-.8-.684-1.793-1.026-2.981-1.026Z"/><path d="m69.118 44.088 6.545-8.775-6.545-8.774H74.1l4.581 6.227 4.546-6.227h5.018l-6.582 8.774 6.582 8.775h-5.018L78.68 37.86 74.1 44.088h-4.982Z"/><path d="M97.428 44.088c-1.89 0-3.406-.448-4.546-1.345-1.139-.896-1.708-2.488-1.708-4.776v-7.642h-3.091v-3.786h3.09l.546-4.706h4.109v4.706h4.873v3.786h-4.873v7.677c0 .85.182 1.44.545 1.77.388.306 1.043.46 1.964.46h2.255v3.856h-3.164ZM102.878 44.089V26.54h4.109l.4 2.37a6.237 6.237 0 0 1 2.291-2.016c.969-.519 2.085-.778 3.345-.778 2.788 0 4.764 1.05 5.927 3.149.655-.968 1.527-1.734 2.618-2.3 1.115-.566 2.327-.85 3.636-.85 2.352 0 4.158.685 5.419 2.053 1.26 1.368 1.89 3.373 1.89 6.014v9.907h-4.654v-9.482c0-1.51-.303-2.665-.909-3.467-.582-.802-1.491-1.203-2.727-1.203-1.261 0-2.279.448-3.055 1.344-.751.897-1.127 2.147-1.127 3.75v9.058h-4.654v-9.482c0-1.51-.303-2.665-.909-3.467-.606-.802-1.54-1.203-2.8-1.203-1.237 0-2.243.448-3.018 1.344-.752.897-1.127 2.147-1.127 3.75v9.058h-4.655ZM143.769 44.514c-1.745 0-3.321-.39-4.727-1.168a8.906 8.906 0 0 1-3.309-3.22c-.8-1.391-1.2-2.995-1.2-4.811 0-1.817.412-3.409 1.236-4.777a8.837 8.837 0 0 1 3.309-3.255c1.406-.778 2.982-1.167 4.728-1.167 1.721 0 3.272.389 4.654 1.167a8.491 8.491 0 0 1 3.309 3.255c.824 1.368 1.236 2.96 1.236 4.777 0 1.816-.412 3.42-1.236 4.811a8.566 8.566 0 0 1-3.309 3.22c-1.406.778-2.97 1.168-4.691 1.168Zm0-3.928c1.212 0 2.267-.436 3.164-1.309.897-.896 1.345-2.217 1.345-3.962 0-1.746-.448-3.055-1.345-3.928-.897-.896-1.94-1.344-3.127-1.344-1.237 0-2.303.448-3.2 1.344-.873.873-1.309 2.182-1.309 3.928 0 1.745.436 3.066 1.309 3.962.897.873 1.951 1.31 3.163 1.31ZM159.333 44.088l-6.618-17.549h4.873l4.581 13.268 4.582-13.268h4.872l-6.654 17.549h-5.636ZM180.618 44.514c-1.818 0-3.431-.378-4.836-1.133a8.325 8.325 0 0 1-3.31-3.184c-.799-1.368-1.2-2.948-1.2-4.74 0-1.817.389-3.433 1.164-4.848.8-1.415 1.891-2.512 3.273-3.29 1.406-.802 3.054-1.203 4.945-1.203 1.77 0 3.333.377 4.691 1.132 1.357.755 2.412 1.793 3.163 3.113.776 1.298 1.164 2.748 1.164 4.352 0 .26-.012.53-.036.814 0 .283-.013.578-.037.884h-13.708c.096 1.368.582 2.442 1.454 3.22.897.778 1.976 1.168 3.236 1.168.946 0 1.734-.201 2.364-.602.654-.425 1.139-.967 1.454-1.627h4.727a8.319 8.319 0 0 1-1.708 3.042c-.776.897-1.746 1.604-2.91 2.123-1.139.52-2.436.779-3.89.779Zm.036-14.719c-1.139 0-2.145.319-3.018.956-.873.613-1.43 1.556-1.673 2.83h8.982c-.073-1.156-.509-2.076-1.309-2.76-.8-.684-1.794-1.026-2.982-1.026Z"/></g><defs><clipPath id="a"><path fill="#fff" transform="translate(27 19)" d="M0 0h163v26H0z"/></clipPath></defs></svg>
